X:2
T:transposed down a fifth, staying in Bb
T:(putting it in mixolydian?)
M:3/2
L:1/2
Q:1/2=100
K:Bbmaj
%%MIDI program 1 41 % Viola
%%MIDI program 2 41 % Viola
%%MIDI program 3 41 % Viola
%%MIDI program 4 41 % Viola
V:1
E|(G/2>A/2G)F|(E/2>F/2G)A|(B/2>A/2G)F|E2E|E2B,|(C/2>D/2E)C|(B,E)B,|E2
G|B2B|(G/2>F/2E)E|(G/2>A/2B)B|B2E|(G/2>A/2B)B|(cB)(3(E/2F/2G/2)|(FE)(3(D/2E/2F/2)|(G/2>F/2E)
G|(EB,)B,|(E/2>F/2G)E|(DE)(3(F/2E/2D/2)|(E/2>F/2G)G|(B/2A/2G/2F/2)(E/2D/2)|(E/2F/2G/2A/2)(B/2A/2)|(G/2B/2E/2G/2)(3(F/2E/2D/2)|E2

